X: 168
T: Aşkı Seninle Tattı...
C: Fehmi Tokay
O: Turkey
F: http://compmusic.upf.edu/node/140
N: hicaz--sarki--duyek--aski_seninle--fehmi_tokay
N: makam= hicaz
N: form= sarki
N: usul= duyek = 8/4
M: 8/4
L: 1/16
K: C _7/8B ^f ^c 
Q: 1/4=120
%%MIDI tuningsystem comma53
A2 d4 e2 =f4 e4  | d4 c4 d8  | e2 =f4 e2 ^1/4f4 ^g4  | a16  | \
w:  ARANAĞME  |   |   |   | 
b2 g6 a2 =f6  | g2 e2 =f2 d2 e2 c6  | 
w:   |   | 
A2 B4 A2 ^G2 A2 Bc BA  | A16  | A2 d6 d2 A2 d4  | \
w:   |   |  Aş kı  SAZ  | 
e2 =f4 ed cB {c}BA A4  | 
w:  se nin le  *  tat *  *  *  *  tı   | 
e2 =f4 fe e3d fe dc  | d6 e=f ed cB A4  | \
w:  hic rân la  *  yan *  dı  *  gö  |  nül   SAZ  | 
A2 d6 d2 A2 d4  | 
w:  Aş kı  SAZ  | 
e2 =f4 ed cB {c}BA A4  | e2 =f4 fe e3d fe dc  | \
w:  se nin le  *  tat *  *  *  *  tı   |  hic rân la  *  yan *  dı  *  gö  | 
d6 e=f ed cd e4  | 
w:  nül   SAZ  | 
e2 =f4 fe ed {e}dc c4  | c2 d4 e2 cB BA A4  | \
w:  Ev vel  *  *  coş *  *  *  *  tu   |  taş tı  da  şim *  *  *  di   | 
A2 B4 A2 ^G2 A2 Bc BA  | 
w:  us lan *  *  *  dı  *  gö  | 
A6 e=f ed cd e4  | e2 =f4 fe ed {e}dc c4  | \
w:  nül   SAZ  |  Ev vel  *  *  coş *  *  *  *  tu   | 
c2 d4 e2 cB BA A4  | 
w:  taş tı  da  şim *  *  *  di   | 
A2 B4 A2 ^G2 A2 Bc BA  | A4 z2 e2 ^1/4f2 ^g2 a4  | \
w:  us lan *  *  *  dı  *  gö  |  nül   SAZ  | 
^g2 a4 ga b6 ag  | 
w:  Cevr_ i  sa *  fâ ya   | 
^1/4f2 fe d4 e2 fe e4  | ef g4 (3fef g3f {a}gf fe  | \
w:  kat *  *  tı  hay *  *  li   |  al *  dan *  *  *  *  *  *  dı  *  gö  | 
e4 z2 e2 ^1/4f2 ^g2 a4  | 
w:  nül   SAZ  | 
^g2 a4 ga b6 ag  | ^1/4f2 fe d4 e2 fe e4  | \
w:  Cevr_ i  sa *  fâ ya   |  kat *  *  tı  hay *  *  li   | 
ef g4 (3fef g3f {a}gf fe  | 
w:  al *  dan *  *  *  *  *  *  dı  *  gö  | 
e6 ef ed cd e4  | e2 =f4 fe ed {e}dc c4  | \
w:  nül   SAZ  |  Ev vel  *  *  coş *  *  *  *  tu   | 
c2 d4 e2 cB BA A4  | 
w:  taş tı  da  şim *  *  *  di   | 
A2 B4 A2 ^G2 A2 Bc BA  | A6 A4 z2 E2 ^1/4F2  | \
w:  us lan *  *  *  dı  *  gö  |  nül   *  SAZ  | 
^G2 A4 |
w:   | 


